X:64
T: You'll Never Deceive Me Again
C: arr. Patrick Steinbach
R: air
M: 4/4
L: 1/8
K: G
   GE | "G" D2EG G2gf  | "Em" e>fed B2AB | "G" d2 ef g>edc | "Em" B2 G/B/A/G/ E2 GE  |
        "G" D2GA B2e>d | dBAG g3e        | "D" d>cBG A>GED | DEG>A "G" G2            :|
|: Bc | "G" d>Bde d2 ga/g/ | "Em" e>def e2ef | "G" g>fag "D" f>edc | "E" BGAG E2GE   |
        "G" D2EG G2gf      | "Em" e>fed B2ed | "D" d>cBG A>GED     | DEG>A G2        :|

